logos/routable-icon.svg

<svg width="65" height="68" viewBox="0 0 65 68" fill="none" xmlns="http://www.w3.org/2000/svg">
<path d="M48.2953 46.5007C58.1767 42.01 64.2567 32.9675 64.2567 22.6932C64.2567 16.5978 62.0319 11.0225 58.0664 6.94233C53.777 2.60481 47.8069 0.33197 40.8586 0.33197H13.5006C12.089 0.33197 10.9521 1.3123 10.7873 2.65409L8.61778 22.173C10.1941 22.2279 11.765 22.173 13.2864 22.0691C16.2908 21.8115 19.2678 21.3077 22.1897 20.5739C23.1565 20.311 24.1177 20.0207 25.0677 19.6976L26.0453 11.0225C26.1002 10.557 26.6989 10.2996 27.0781 10.6117L44.7202 23.4711C45.0441 23.7284 45.0441 24.2433 44.6649 24.4513L24.255 37.3109C23.8209 37.5681 23.2222 37.2613 23.2771 36.741L24.0353 30.0761C20.4541 30.388 16.8675 30.4376 13.3413 30.1799C9.70527 29.8677 6.22855 29.249 2.86714 28.318C2.43324 28.2138 2.05425 28.0604 1.62035 27.9565C0.917312 27.7485 0.318624 28.526 0.752523 29.0902L6.88764 36.9383L3.95467 64.8255C3.78988 66.3756 5.04217 67.668 6.66795 67.668H18.7185C20.1301 67.668 21.2725 66.6878 21.4316 65.3461L23.0574 50.3178C23.1123 49.8029 23.6014 49.3868 24.1451 49.3868H28.9237C29.3025 49.3868 29.6814 49.5948 29.9012 49.9566L39.1286 66.3263C39.6174 67.1531 40.54 67.668 41.5178 67.668H55.6829C57.7428 67.668 59.0497 65.6034 58.0721 63.8999L48.301 46.495L48.2953 46.5007Z" fill="#3C65F1"/>
</svg>

<svg fill="none" viewBox="0 0 65 68" xmlns="http://www.w3.org/2000/svg">
  <path fill="#3C65F1" d="M48.295 46.5c9.882-4.49 15.962-13.532 15.962-23.807 0-6.095-2.225-11.67-6.19-15.75C53.776 2.604 47.806.331 40.858.331H13.5c-1.412 0-2.549.98-2.714 2.322l-2.17 19.519c1.577.055 3.148 0 4.67-.104a56.306 56.306 0 0 0 8.903-1.495 48.296 48.296 0 0 0 2.878-.876l.977-8.675c.055-.466.654-.723 1.033-.411l17.642 12.86c.324.256.324.771-.055.98L24.255 37.31c-.434.257-1.033-.05-.978-.57l.758-6.665c-3.58.312-7.168.362-10.694.104a57.508 57.508 0 0 1-10.474-1.862c-.434-.104-.813-.258-1.247-.362-.703-.207-1.301.57-.867 1.134l6.135 7.848-2.933 27.888c-.165 1.55 1.087 2.842 2.713 2.842h12.05c1.412 0 2.555-.98 2.714-2.322l1.625-15.028c.055-.515.544-.931 1.088-.931h4.779c.378 0 .757.208.977.57l9.228 16.37c.488.826 1.411 1.341 2.389 1.341h14.165c2.06 0 3.367-2.065 2.39-3.768L48.3 46.495l-.006.006Z"/>
</svg>
